X:130
T:Cross the Water
M:C |
L:1/8
B:Thompson's Compleat Collection of 200 Favourite Country Dances, vol. 2 (London, 1765)
Z:Transcribed and edited by Flynn Titford-Mock, 2007
Z:abc's:AK/Fiddler's Companion
K:A
(e/4d/4c/4B/4) | A2 A,4 (dc/B/) | cA a4 "tr"c2 | (3def ed dcBA | (3cde dc {c}B3 (e/4d/4c/4B/4) | A2 A,4 (dc/B/) |
cA a4 gf | a<gf<e g<fe<^d | {^d}e2e2e2 :: e/=d/ | cAEC A,CEA | cAaA fAeA |
cAfA ecdB | (3cde dc {c}B2 ed | cAEC A,CEA | cAaA fAeA | (3fga ec dBAG | {G}A2A2A2 :|

